.local/share/icons/Gruvbox-Plus-Dark/panel/22/indicator-notification-unread.svg

<svg xmlns="http://www.w3.org/2000/svg" width="22" height="22" version="1.1">
 <defs>
  <style id="current-color-scheme" type="text/css">
   .ColorScheme-Text { color:#ebdbb2; } .ColorScheme-Highlight { color:#458588; }
  </style>
 </defs>
 <path style="fill:currentColor" class="ColorScheme-Text" d="M 16.435547 3 C 16.381727 3.00219 16.328163 3.0087203 16.275391 3.0195312 L 5.9765625 5.1894531 C 5.9667425 5.1925531 5.9569806 5.1958087 5.9472656 5.1992188 C 4.5107247 5.5456846 3.4983224 6.6303201 2.8164062 7.8769531 C 2.1344904 9.123486 1.7241851 10.586308 1.4550781 12.013672 C 1.2780766 12.952436 1.1822106 13.838429 1.1132812 14.669922 A 3 3 0 0 1 3 14 A 3 3 0 0 1 3.1816406 14.009766 C 3.4580086 11.390387 4.1610322 7.9960936 5.9726562 7.9960938 C 8.9200093 7.9960938 9 16.992187 9 16.992188 L 6 16.992188 A 3 3 0 0 1 6 17 A 3 3 0 0 1 5.2871094 18.943359 L 11.078125 19 C 11.152265 19.001 11.226284 18.993796 11.298828 18.978516 L 21.191406 16.849609 C 21.634904 16.754449 21.958795 16.372834 21.980469 15.919922 C 21.980469 15.919922 22.128042 12.946857 21.611328 9.8789062 C 21.352971 8.3449638 20.93849 6.7745224 20.177734 5.4746094 C 19.416979 4.1746964 18.181579 3.0986784 16.537109 3.0078125 C 16.503279 3.0060925 16.469379 3.0060925 16.435547 3.0078125 L 16.435547 3 z M 16.486328 5.0195312 C 17.328821 5.0895053 17.909406 5.5489562 18.451172 6.4746094 C 19.007797 7.4257531 19.403272 8.8054484 19.638672 10.203125 C 20.046607 12.625117 19.95382 14.459887 19.935547 15.068359 L 11.275391 16.929688 C 11.268692 14.427172 10.967762 8.410465 8.0625 6.7929688 L 16.486328 5.0195312 z M 13.539062 7 L 11.080078 7.2109375 L 11 7.3007812 L 12.181641 11.917969 L 12.294922 12 L 13.683594 11.933594 L 13.722656 11.792969 L 12.822266 8.3984375 L 13.984375 8.3222656 L 14 8.2246094 L 13.603516 7.0742188 L 13.539062 7 z"/>
 <path style="opacity:0.3;fill:currentColor" class="ColorScheme-Text" d="M 5.9726562 7.9960938 C 4.1610323 7.9960938 3.4580086 11.390231 3.1816406 14.009766 A 3 3 0 0 1 6 16.992188 L 9 16.992188 C 9 16.992188 8.9200092 7.9960938 5.9726562 7.9960938 z"/>
 <circle style="fill:currentColor" class="ColorScheme-Highlight" cx="3" cy="17" r="2"/>
</svg>

<svg width="22" height="22" version="1.1" xmlns="http://www.w3.org/2000/svg">
  <defs>
    <style id="current-color-scheme" type="text/css">.ColorScheme-Text { color:#ebdbb2; } .ColorScheme-Highlight { color:#458588; } .ColorScheme-NeutralText { color:#fe8019; } .ColorScheme-PositiveText { color:#689d6a; } .ColorScheme-NegativeText { color:#fb4934; }</style>
  </defs>
  <path class="ColorScheme-Text" d="m16.44 3c-0.05382 0.00219-0.1074 0.00872-0.1602 0.01953l-10.3 2.17c-0.00982 0.0031-0.01958 0.006356-0.0293 0.009766-1.437 0.3465-2.449 1.431-3.131 2.678-0.6819 1.247-1.092 2.709-1.361 4.137-0.177 0.9388-0.2729 1.825-0.3418 2.656a3 3 0 0 1 1.887-0.6699 3 3 0 0 1 0.1816 0.009766c0.2764-2.619 0.9794-6.014 2.791-6.014 2.947 0 3.027 8.996 3.027 8.996h-3a3 3 0 0 1 0 0.007812 3 3 0 0 1-0.7129 1.943l5.791 0.05664c0.07414 1e-3 0.1482-0.006204 0.2207-0.02148l9.893-2.129c0.4435-0.09516 0.7674-0.4768 0.7891-0.9297 0 0 0.1476-2.973-0.3691-6.041-0.2584-1.534-0.6728-3.104-1.434-4.404-0.7608-1.3-1.996-2.376-3.641-2.467-0.03383-0.00172-0.06773-0.00172-0.1016 0v-0.007812zm0.05078 2.02c0.8425 0.06997 1.423 0.5294 1.965 1.455 0.5566 0.9511 0.9521 2.331 1.188 3.729 0.4079 2.422 0.3151 4.257 0.2969 4.865l-8.66 1.861c-0.006699-2.503-0.3076-8.519-3.213-10.14l8.424-1.773zm-2.947 1.98-2.459 0.2109-0.08008 0.08984 1.182 4.617 0.1133 0.08203 1.389-0.06641 0.03906-0.1406-0.9004-3.395 1.162-0.07617 0.01562-0.09766-0.3965-1.15-0.06445-0.07422z" fill="currentColor"/>
  <path class="ColorScheme-Text" d="m5.973 7.996c-1.812 0-2.515 3.394-2.791 6.014a3 3 0 0 1 2.818 2.982h3s-0.07999-8.996-3.027-8.996z" fill="currentColor" opacity=".3"/>
  <circle class="ColorScheme-Highlight" cx="3" cy="17" r="2" fill="currentColor"/>
</svg>
